X: 170
T: Temple Change, The (Cockle Shells)
M:4/4
L:1/8
Q:160
S:Playford
O:Manuscript
A:English
K:F
A2|F3 G A2c2| A2 d2 cAGF| A2 G2 G2 FG| A2 G2 G2 D2|F3 G A2 c2| A2 d2 cAGF| A2 D2 D2 C2| F2 D2 D2:|
|: C2|DCDC A2 C2|DCDC a2 gf|f2 g2 g2 fg|a2 g2 g2 C2|DCDC A2 C2|DCDC a2 gf|A2 D2 D2 C2| F2 D2 D2:|

